packages/sources/icons/src/vitamix/calendar-line.svg

<svg width="16" height="16" viewBox="0 0 16 16" xmlns="http://www.w3.org/2000/svg"><path d="M11.3276 2.663H13.9936C14.1703 2.663 14.3399 2.73322 14.4649 2.85822C14.5899 2.98321 14.6601 3.15273 14.6601 3.3295V13.9935C14.6601 14.1703 14.5899 14.3398 14.4649 14.4648C14.3399 14.5898 14.1703 14.66 13.9936 14.66H1.99658C1.81981 14.66 1.65028 14.5898 1.52529 14.4648C1.4003 14.3398 1.33008 14.1703 1.33008 13.9935V3.3295C1.33008 3.15273 1.4003 2.98321 1.52529 2.85822C1.65028 2.73322 1.81981 2.663 1.99658 2.663H4.66258V1.33H5.99558V2.663H9.99458V1.33H11.3276V2.663ZM9.99458 3.996H5.99558V5.329H4.66258V3.996H2.66308V6.662H13.3271V3.996H11.3276V5.329H9.99458V3.996ZM13.3271 7.995H2.66308V13.327H13.3271V7.995Z"/></svg>

<svg width="16" height="16" xmlns="http://www.w3.org/2000/svg"><path d="M11.328 2.663h2.666a.667.667 0 0 1 .666.667v10.663a.666.666 0 0 1-.666.667H1.997a.666.666 0 0 1-.667-.667V3.33a.666.666 0 0 1 .667-.666h2.666V1.33h1.333v1.333h3.999V1.33h1.333v1.333ZM9.995 3.996h-4v1.333H4.664V3.996h-2v2.666h10.664V3.996h-2v1.333H9.996V3.996Zm3.332 3.999H2.663v5.332h10.664V7.995Z"/></svg>
